X:1
T:Title
%%score { ( 1 3 ) | ( 2 4 ) }
L:1/8
M:6/8
K:Eb
V:1 treble nm="Grand Piano"
V:3 treble 
V:2 bass 
V:4 bass 
V:1
 z3 z2[Q:1/4=100] E | G2 E DEF | E3- E2 G | B2 G FGA | G3- G2 [B,EG] | %5
 [B,DF]2 [B,DF] [B,EG]2 [B,EG] |[M:5/8] [B,DF]-[B,DF]- [B,DF]3 |[M:1/8] [B,DF] | %8
[M:3/4] z2 z =A z2 | [B,DB]4- [B,DB]B | B2 B B2 B | B2 B G2 B | B2 B B2 B | B2 B G2 [EGB] | %14
 c2 Ae dc | c2 B B2 [GB] | c2 Ae dc |[M:5/8] c2 B B2 |[M:1/8] e |[M:3/4] B6 | B6 | %21
 [Fd][Ec] [DB] [Ec]2 [Ad] | [Ge]2 [Ac] [GB]2 e | B6 | B6 |[M:7/8] [Fd][Ec][DB] [Ec]3 [Ad] | %26
[M:5/8] [Ge]-[Ge]- [Ge]3 |] %27
V:2
 z6 | B,2 G, F,G,A, | G,3- G,2[K:treble] E | G2 E DEF | E3- E2[K:bass] E, | B,,2 B,, E,2 E, | %6
[M:5/8] B,,-B,,- B,,3 |[M:1/8] B,, |[M:3/4] E,2 .E,2 GF, | B,,4- B,,[K:treble]G | AG FD EF | %11
 G2 G E2 G | AG FD EF | G2 G E2[K:bass] E, | [A,EA]2 [A,CE][A,E]- [A,B,E][A,E] | %15
 [E,A,E]2 [E,G,E] [E,G,E]2 [E,E] | [A,EA]2 [A,CE][A,E]- [A,B,E][A,E] | %17
[M:5/8][K:bass] [E,A,E]2 [E,G,E] [E,G,E]2 |[M:1/8][K:treble] G |[M:3/4] G6[K:bass][K:treble] | %20
 G6[K:bass] | [B,,B,]2 [B,,B,] [B,,B,]2 [B,,B,] | [E,B,]2 [E,E] [E,E]2[K:treble] G | %23
 G6[K:bass][K:treble] | G6[K:bass] |[M:7/8] [B,,B,]2 [B,,B,] [B,,B,]3 [B,,B,] | %26
[M:5/8] [E,B,]-[E,B,]- [E,B,]3 |] %27
V:3
 x6 | x6 | x6 | x6 | x6 | x6 |[M:5/8] x5 |[M:1/8] x |[M:3/4] [B,EG]2 [B,EG] [CE]2 [CE=A] | x6 | %10
 x6 | x6 | x6 | x6 | x6 | x6 | x6 |[M:5/8] x5 |[M:1/8] x |[M:3/4] z2 E E2 e | z2 E E2 [Ge] | x6 | %22
 x6 | z2 E E2 e | z2 E E2 [Ge] |[M:7/8] x7 |[M:5/8] x5 |] %27
V:4
 x6 | x6 | x5[K:treble] x | x6 | x5[K:bass] x | x6 |[M:5/8] x5 |[M:1/8] x |[M:3/4] z2 z .C,3 | %9
 x5[K:treble] x | x6 | x6 | x6 | x5[K:bass] x | z2 z C z2 | x6 | z2 z C z2 |[M:5/8][K:bass] x5 | %18
[M:1/8][K:treble] x |[M:3/4] z2[K:bass] E, E,2[K:treble] G | z2[K:bass] E, E,2 [E,B,] | x6 | %22
 x5[K:treble] x | z2[K:bass] E, E,2[K:treble] G | z2[K:bass] E, E,2 [E,B,] |[M:7/8] x7 | %26
[M:5/8] x5 |] %27

